public/images/sidebar/address-book.svg

<svg width="16" height="16" viewBox="0 0 16 16" fill="none" xmlns="http://www.w3.org/2000/svg">
<path fill-rule="evenodd" clip-rule="evenodd" d="M2.66659 6.00016V10.0002H1.99992C1.63173 10.0002 1.33325 10.2986 1.33325 10.6668C1.33325 11.035 1.63173 11.3335 1.99992 11.3335H2.66659V13.3335C2.66659 14.0699 3.26354 14.6668 3.99992 14.6668H11.9999C12.7363 14.6668 13.3333 14.0699 13.3333 13.3335V2.66683C13.3333 1.93045 12.7363 1.3335 11.9999 1.3335H3.99992C3.26354 1.3335 2.66659 1.93045 2.66659 2.66683V4.66683H1.99992C1.63173 4.66683 1.33325 4.96531 1.33325 5.3335C1.33325 5.70169 1.63173 6.00016 1.99992 6.00016H2.66659ZM4.66659 10.0002H3.99992V6.00016H4.66659C5.03478 6.00016 5.33325 5.70169 5.33325 5.3335C5.33325 4.96531 5.03478 4.66683 4.66659 4.66683H3.99992V2.66683H11.9999V13.3335H3.99992V11.3335H4.66659C5.03478 11.3335 5.33325 11.035 5.33325 10.6668C5.33325 10.2986 5.03478 10.0002 4.66659 10.0002Z" fill="#162D45"/>
<path d="M2.66659 10.0002V10.2502H2.91659V10.0002H2.66659ZM2.66659 6.00016H2.91659V5.75016H2.66659V6.00016ZM2.66659 11.3335H2.91659V11.0835H2.66659V11.3335ZM2.66659 4.66683V4.91683H2.91659V4.66683H2.66659ZM3.99992 10.0002H3.74992V10.2502H3.99992V10.0002ZM3.99992 6.00016V5.75016H3.74992V6.00016H3.99992ZM3.99992 4.66683H3.74992V4.91683H3.99992V4.66683ZM3.99992 2.66683V2.41683H3.74992V2.66683H3.99992ZM11.9999 2.66683H12.2499V2.41683H11.9999V2.66683ZM11.9999 13.3335V13.5835H12.2499V13.3335H11.9999ZM3.99992 13.3335H3.74992V13.5835H3.99992V13.3335ZM3.99992 11.3335V11.0835H3.74992V11.3335H3.99992ZM2.91659 10.0002V6.00016H2.41659V10.0002H2.91659ZM1.99992 10.2502H2.66659V9.75016H1.99992V10.2502ZM1.58325 10.6668C1.58325 10.4367 1.7698 10.2502 1.99992 10.2502V9.75016C1.49366 9.75016 1.08325 10.1606 1.08325 10.6668H1.58325ZM1.99992 11.0835C1.7698 11.0835 1.58325 10.8969 1.58325 10.6668H1.08325C1.08325 11.1731 1.49366 11.5835 1.99992 11.5835V11.0835ZM2.66659 11.0835H1.99992V11.5835H2.66659V11.0835ZM2.91659 13.3335V11.3335H2.41659V13.3335H2.91659ZM3.99992 14.4168C3.40161 14.4168 2.91659 13.9318 2.91659 13.3335H2.41659C2.41659 14.2079 3.12547 14.9168 3.99992 14.9168V14.4168ZM11.9999 14.4168H3.99992V14.9168H11.9999V14.4168ZM13.0833 13.3335C13.0833 13.9318 12.5982 14.4168 11.9999 14.4168V14.9168C12.8744 14.9168 13.5833 14.2079 13.5833 13.3335H13.0833ZM13.0833 2.66683V13.3335H13.5833V2.66683H13.0833ZM11.9999 1.5835C12.5982 1.5835 13.0833 2.06852 13.0833 2.66683H13.5833C13.5833 1.79238 12.8744 1.0835 11.9999 1.0835V1.5835ZM3.99992 1.5835H11.9999V1.0835H3.99992V1.5835ZM2.91659 2.66683C2.91659 2.06852 3.40161 1.5835 3.99992 1.5835V1.0835C3.12547 1.0835 2.41659 1.79238 2.41659 2.66683H2.91659ZM2.91659 4.66683V2.66683H2.41659V4.66683H2.91659ZM1.99992 4.91683H2.66659V4.41683H1.99992V4.91683ZM1.58325 5.3335C1.58325 5.10338 1.7698 4.91683 1.99992 4.91683V4.41683C1.49366 4.41683 1.08325 4.82723 1.08325 5.3335H1.58325ZM1.99992 5.75016C1.7698 5.75016 1.58325 5.56361 1.58325 5.3335H1.08325C1.08325 5.83976 1.49366 6.25016 1.99992 6.25016V5.75016ZM2.66659 5.75016H1.99992V6.25016H2.66659V5.75016ZM3.99992 10.2502H4.66659V9.75016H3.99992V10.2502ZM3.74992 6.00016V10.0002H4.24992V6.00016H3.74992ZM4.66659 5.75016H3.99992V6.25016H4.66659V5.75016ZM5.08325 5.3335C5.08325 5.56361 4.8967 5.75016 4.66659 5.75016V6.25016C5.17285 6.25016 5.58325 5.83976 5.58325 5.3335H5.08325ZM4.66659 4.91683C4.8967 4.91683 5.08325 5.10338 5.08325 5.3335H5.58325C5.58325 4.82723 5.17285 4.41683 4.66659 4.41683V4.91683ZM3.99992 4.91683H4.66659V4.41683H3.99992V4.91683ZM3.74992 2.66683V4.66683H4.24992V2.66683H3.74992ZM11.9999 2.41683H3.99992V2.91683H11.9999V2.41683ZM12.2499 13.3335V2.66683H11.7499V13.3335H12.2499ZM3.99992 13.5835H11.9999V13.0835H3.99992V13.5835ZM3.74992 11.3335V13.3335H4.24992V11.3335H3.74992ZM4.66659 11.0835H3.99992V11.5835H4.66659V11.0835ZM5.08325 10.6668C5.08325 10.8969 4.8967 11.0835 4.66659 11.0835V11.5835C5.17285 11.5835 5.58325 11.1731 5.58325 10.6668H5.08325ZM4.66659 10.2502C4.8967 10.2502 5.08325 10.4367 5.08325 10.6668H5.58325C5.58325 10.1606 5.17285 9.75016 4.66659 9.75016V10.2502Z" fill="#162D45"/>
</svg>

<svg width="16" height="16" fill="none" xmlns="http://www.w3.org/2000/svg"><path fill-rule="evenodd" clip-rule="evenodd" d="M2.667 6v4H2a.667.667 0 100 1.334h.667v2c0 .736.597 1.333 1.333 1.333h8c.736 0 1.333-.597 1.333-1.333V2.667c0-.737-.597-1.333-1.333-1.333H4c-.736 0-1.333.596-1.333 1.333v2H2A.667.667 0 002 6h.667zm2 4H4V6h.667a.667.667 0 100-1.333H4v-2h8v10.666H4v-2h.667a.667.667 0 000-1.333z" fill="#162D45"/><path d="M2.667 10v.25h.25V10h-.25zm0-4h.25v-.25h-.25V6zm0 5.334h.25v-.25h-.25v.25zm0-6.667v.25h.25v-.25h-.25zM4 10h-.25v.25H4V10zm0-4v-.25h-.25V6H4zm0-1.333h-.25v.25H4v-.25zm0-2v-.25h-.25v.25H4zm8 0h.25v-.25H12v.25zm0 10.666v.25h.25v-.25H12zm-8 0h-.25v.25H4v-.25zm0-2v-.25h-.25v.25H4zM2.917 10V6h-.5v4h.5zM2 10.25h.667v-.5H2v.5zm-.417.417c0-.23.187-.417.417-.417v-.5a.917.917 0 00-.917.917h.5zm.417.417a.417.417 0 01-.417-.417h-.5c0 .506.41.917.917.917v-.5zm.667 0H2v.5h.667v-.5zm.25 2.25v-2h-.5v2h.5zM4 14.417a1.083 1.083 0 01-1.083-1.083h-.5c0 .874.708 1.583 1.583 1.583v-.5zm8 0H4v.5h8v-.5zm1.083-1.083c0 .598-.485 1.083-1.083 1.083v.5c.874 0 1.583-.71 1.583-1.583h-.5zm0-10.667v10.667h.5V2.667h-.5zM12 1.584c.598 0 1.083.485 1.083 1.083h.5c0-.875-.709-1.583-1.583-1.583v.5zm-8 0h8v-.5H4v.5zM2.917 2.667c0-.598.485-1.083 1.083-1.083v-.5c-.875 0-1.583.708-1.583 1.583h.5zm0 2v-2h-.5v2h.5zM2 4.917h.667v-.5H2v.5zm-.417.417c0-.23.187-.417.417-.417v-.5a.917.917 0 00-.917.917h.5zM2 5.75a.417.417 0 01-.417-.417h-.5c0 .507.41.917.917.917v-.5zm.667 0H2v.5h.667v-.5zM4 10.25h.667v-.5H4v.5zM3.75 6v4h.5V6h-.5zm.917-.25H4v.5h.667v-.5zm.416-.417c0 .23-.186.417-.416.417v.5c.506 0 .916-.41.916-.917h-.5zm-.416-.416c.23 0 .416.186.416.417h.5a.917.917 0 00-.916-.917v.5zm-.667 0h.667v-.5H4v.5zm-.25-2.25v2h.5v-2h-.5zm8.25-.25H4v.5h8v-.5zm.25 10.916V2.668h-.5v10.667h.5zm-8.25.25h8v-.5H4v.5zm-.25-2.25v2h.5v-2h-.5zm.917-.25H4v.5h.667v-.5zm.416-.416c0 .23-.186.417-.416.417v.5c.506 0 .916-.41.916-.917h-.5zm-.416-.417c.23 0 .416.187.416.417h.5a.917.917 0 00-.916-.917v.5z" fill="#162D45"/></svg>
